archdroid-icon-theme/Archdroid-Purple/categories/scalable/preferences-system-directory.svg

<?xml version="1.0" encoding="UTF-8" standalone="no"?>
<!-- Created with Inkscape (http://www.inkscape.org/) -->

<svg
   xmlns:dc="http://purl.org/dc/elements/1.1/"
   xmlns:cc="http://creativecommons.org/ns#"
   xmlns:rdf="http://www.w3.org/1999/02/22-rdf-syntax-ns#"
   xmlns:svg="http://www.w3.org/2000/svg"
   xmlns="http://www.w3.org/2000/svg"
   xmlns:sodipodi="http://sodipodi.sourceforge.net/DTD/sodipodi-0.dtd"
   xmlns:inkscape="http://www.inkscape.org/namespaces/inkscape"
   width="256"
   height="256"
   id="svg2424"
   sodipodi:version="0.32"
   inkscape:version="0.91 r13725"
   version="1.0"
   sodipodi:docname="preferences-system-directory.svg"
   inkscape:output_extension="org.inkscape.output.svg.inkscape"
   inkscape:export-filename="/home/thayer/archlinux-logo-contest/archer-full-detail.png"
   inkscape:export-xdpi="90"
   inkscape:export-ydpi="90">
  <defs
     id="defs2426" />
  <sodipodi:namedview
     id="base"
     pagecolor="#ffffff"
     bordercolor="#666666"
     borderopacity="1.0"
     gridtolerance="10000"
     guidetolerance="10"
     objecttolerance="10"
     inkscape:pageopacity="0.0"
     inkscape:pageshadow="2"
     inkscape:zoom="1.121093750591529"
     inkscape:cx="59.47614048282284"
     inkscape:cy="155.154925730552"
     inkscape:document-units="px"
     inkscape:current-layer="g2210"
     inkscape:window-width="1366"
     inkscape:window-height="713"
     inkscape:window-x="0"
     inkscape:window-y="30"
     showgrid="false"
     inkscape:window-maximized="1" />
  <metadata
     id="metadata2429">
    <rdf:RDF>
      <cc:Work
         rdf:about="">
        <dc:format>image/svg+xml</dc:format>
        <dc:type
           rdf:resource="http://purl.org/dc/dcmitype/StillImage" />
        <dc:title></dc:title>
      </cc:Work>
    </rdf:RDF>
  </metadata>
  <g
     inkscape:label="Layer 1"
     inkscape:groupmode="layer"
     id="layer1"
     transform="translate(-269.51783,-73.601247)">
    <g
       id="g2424"
       transform="matrix(1.3473684,0,0,1.3473684,-632.88236,-513.34366)">
      <g
         id="g2210">
        <path
           style="fill:#9C27B0;fill-opacity:1;fill-rule:evenodd;stroke:none;stroke-width:1;stroke-linecap:round;stroke-linejoin:round;stroke-miterlimit:10;stroke-dasharray:none;stroke-opacity:1"
           d="M 128 0 C 116.60518 27.937051 109.68663 46.237163 97 73.34375 C 104.7785 81.588957 114.33826 91.155503 129.84375 102 C 113.17383 95.140423 101.81018 88.271496 93.3125 81.125 C 77.076039 115.00489 51.621645 163.24639 0 256 C 40.562707 232.58244 72.007597 218.13833 101.3125 212.625 C 100.05874 207.22065 99.388995 201.34748 99.4375 195.25 L 99.46875 193.96875 C 100.11254 167.97477 113.63809 147.98651 129.65625 149.34375 C 145.6744 150.70098 158.14379 172.88102 157.5 198.875 C 157.37873 203.77122 156.8095 208.47582 155.84375 212.84375 C 184.83328 218.51691 215.98162 232.89667 256 256 C 248.10807 241.47038 241.03949 228.38017 234.3125 215.90625 C 223.71641 207.69356 212.66949 197.00882 190.125 185.4375 C 205.6208 189.46395 216.72684 194.12 225.375 199.3125 C 156.97985 71.972668 151.45422 55.040376 128 0 z "
           id="path2518"
           transform="matrix(0.7421875,0,0,0.7421875,669.75015,435.62318)" />
      </g>
    </g>
  </g>
</svg>

<svg xmlns="http://www.w3.org/2000/svg" viewBox="0 0 256 256"><path d="m128 0c-11.395 27.937-18.313 46.24-31 73.34 7.778 8.245 17.338 17.812 32.844 28.656-16.67-6.86-28.03-13.729-36.531-20.875-16.236 33.88-41.691 82.12-93.31 174.88 40.563-23.418 72.01-37.862 101.31-43.37-1.254-5.404-1.924-11.278-1.875-17.375l.031-1.281c.644-25.994 14.169-45.982 30.19-44.625 16.02 1.357 28.488 23.537 27.844 49.53-.121 4.896-.69 9.601-1.656 13.969 28.99 5.673 60.14 20.05 100.16 43.16-7.892-14.53-14.961-27.62-21.688-40.09-10.596-8.213-21.643-18.897-44.19-30.469 15.496 4.03 26.602 8.683 35.25 13.875-68.4-127.34-73.921-144.27-97.37-199.31" transform="translate(.002-.001)" fill="#9C27B0" fill-rule="evenodd"/></svg>
